material/.icons/material/group.svg

<svg xmlns="http://www.w3.org/2000/svg" viewBox="0 0 24 24"><path d="M1 1v4h1v14H1v4h4v-1h14v1h4v-4h-1V5h1V1h-4v1H5V1m0 3h14v1h1v14h-1v1H5v-1H4V5h1m1 1v8h3v4h9V9h-4V6M8 8h4v4H8m6-1h2v5h-5v-2h3"/></svg>

<?xml version="1.0" encoding="UTF-8"?><!DOCTYPE svg PUBLIC "-//W3C//DTD SVG 1.1//EN" "http://www.w3.org/Graphics/SVG/1.1/DTD/svg11.dtd"><svg xmlns="http://www.w3.org/2000/svg" xmlns:xlink="http://www.w3.org/1999/xlink" version="1.1" id="mdi-group" width="24" height="24" viewBox="0 0 24 24"><path d="M1,1V5H2V19H1V23H5V22H19V23H23V19H22V5H23V1H19V2H5V1M5,4H19V5H20V19H19V20H5V19H4V5H5M6,6V14H9V18H18V9H14V6M8,8H12V12H8M14,11H16V16H11V14H14" /></svg>
